Flat-Remix-Dark/apps/scalable/gmail-offline.svg

<svg xmlns="http://www.w3.org/2000/svg" width="384pt" height="384pt" version="1.1" viewBox="0 0 384 384"> <defs> <clipPath id="clip1"> <path d="M 16 76 L 372 76 L 372 323 L 16 323 Z M 16 76"/> </clipPath> <clipPath id="clip2"> <path d="M 508.679688 199.820312 C 508.679688 373.652344 367.726562 514.449219 194.050781 514.449219 C 20.371094 514.449219 -120.582031 373.652344 -120.582031 199.820312 C -120.582031 25.984375 20.371094 -114.8125 194.050781 -114.8125 C 367.726562 -114.8125 508.679688 25.984375 508.679688 199.820312 Z M 508.679688 199.820312"/> </clipPath> <clipPath id="clip3"> <path d="M 194 104 L 372 104 L 372 323 L 194 323 Z M 194 104"/> </clipPath> <clipPath id="clip4"> <path d="M 508.679688 199.820312 C 508.679688 373.652344 367.726562 514.449219 194.050781 514.449219 C 20.371094 514.449219 -120.582031 373.652344 -120.582031 199.820312 C -120.582031 25.984375 20.371094 -114.8125 194.050781 -114.8125 C 367.726562 -114.8125 508.679688 25.984375 508.679688 199.820312 Z M 508.679688 199.820312"/> </clipPath> <clipPath id="clip5"> <path d="M 344 76 L 372 76 L 372 323 L 344 323 Z M 344 76"/> </clipPath> <clipPath id="clip6"> <path d="M 508.679688 199.820312 C 508.679688 373.652344 367.726562 514.449219 194.050781 514.449219 C 20.371094 514.449219 -120.582031 373.652344 -120.582031 199.820312 C -120.582031 25.984375 20.371094 -114.8125 194.050781 -114.8125 C 367.726562 -114.8125 508.679688 25.984375 508.679688 199.820312 Z M 508.679688 199.820312"/> </clipPath> <clipPath id="clip7"> <path d="M 16 76 L 44 76 L 44 323 L 16 323 Z M 16 76"/> </clipPath> <clipPath id="clip8"> <path d="M 508.679688 199.820312 C 508.679688 373.652344 367.726562 514.449219 194.050781 514.449219 C 20.371094 514.449219 -120.582031 373.652344 -120.582031 199.820312 C -120.582031 25.984375 20.371094 -114.8125 194.050781 -114.8125 C 367.726562 -114.8125 508.679688 25.984375 508.679688 199.820312 Z M 508.679688 199.820312"/> </clipPath> <clipPath id="clip9"> <path d="M 16 76 L 195 76 L 195 223 L 16 223 Z M 16 76"/> </clipPath> <clipPath id="clip10"> <path d="M 508.679688 199.820312 C 508.679688 373.652344 367.726562 514.449219 194.050781 514.449219 C 20.371094 514.449219 -120.582031 373.652344 -120.582031 199.820312 C -120.582031 25.984375 20.371094 -114.8125 194.050781 -114.8125 C 367.726562 -114.8125 508.679688 25.984375 508.679688 199.820312 Z M 508.679688 199.820312"/> </clipPath> <clipPath id="clip11"> <path d="M 194 76 L 372 76 L 372 223 L 194 223 Z M 194 76"/> </clipPath> <clipPath id="clip12"> <path d="M 508.679688 199.820312 C 508.679688 373.652344 367.726562 514.449219 194.050781 514.449219 C 20.371094 514.449219 -120.582031 373.652344 -120.582031 199.820312 C -120.582031 25.984375 20.371094 -114.8125 194.050781 -114.8125 C 367.726562 -114.8125 508.679688 25.984375 508.679688 199.820312 Z M 508.679688 199.820312"/> </clipPath> </defs> <g> <g clip-path="url(#clip1)"> <g clip-path="url(#clip2)"> <path d="M 29.675781 76.703125 L 358.394531 76.703125 C 365.824219 76.703125 371.761719 82.734375 371.761719 90.164062 L 371.761719 309.445312 C 371.761719 316.875 365.769531 322.8125 358.394531 322.8125 L 29.675781 322.8125 C 22.191406 322.8125 16.214844 316.820312 16.214844 309.445312 L 16.214844 90.164062 C 16.214844 82.734375 22.207031 76.703125 29.675781 76.703125 M 29.675781 76.703125" style="fill:rgb(100.000%,100.000%,100.000%)"/> </g> </g> <g clip-path="url(#clip3)"> <g clip-path="url(#clip4)"> <path d="M 371.882812 104.0625 L 194.050781 222.472656 L 344.523438 322.933594 L 358.203125 322.933594 C 365.6875 322.933594 371.882812 316.738281 371.882812 309.253906 M 371.882812 104.0625" style="fill:rgb(80.000%,80.000%,80.000%)"/> </g> </g> <g clip-path="url(#clip5)"> <g clip-path="url(#clip6)"> <path d="M 344.523438 76.703125 L 344.523438 322.933594 L 358.203125 322.933594 C 365.6875 322.933594 371.882812 316.738281 371.882812 309.253906 L 371.882812 90.382812 C 371.882812 82.953125 365.6875 76.757812 358.203125 76.757812 M 344.523438 76.757812" style="fill:rgb(16.862%,38.431%,75.294%)"/> </g> </g> <g clip-path="url(#clip7)"> <g clip-path="url(#clip8)"> <path d="M 29.894531 76.703125 C 22.464844 76.703125 16.269531 82.898438 16.269531 90.328125 L 16.269531 309.199219 C 16.269531 316.683594 22.464844 322.878906 29.894531 322.878906 L 43.574219 322.878906 L 43.574219 76.648438 M 29.894531 76.648438" style="fill:rgb(16.862%,38.431%,75.294%)"/> </g> </g> <g clip-path="url(#clip9)"> <g clip-path="url(#clip10)"> <path d="M 29.894531 76.703125 C 22.464844 76.703125 16.269531 82.898438 16.269531 90.328125 L 16.269531 104.007812 L 194.105469 222.417969 L 194.105469 177.097656 L 43.628906 76.632812 L 29.949219 76.632812 M 29.894531 76.6875" style="fill:rgb(16.862%,38.431%,75.294%)"/> </g> </g> <g clip-path="url(#clip11)"> <g clip-path="url(#clip12)"> <path d="M 358.203125 76.703125 C 365.6875 76.703125 371.882812 82.898438 371.882812 90.328125 L 371.882812 104.007812 L 194.050781 222.417969 L 194.050781 177.097656 L 344.46875 76.632812 L 358.148438 76.632812 M 358.203125 76.6875" style="fill:rgb(16.862%,38.431%,75.294%)"/> </g> </g> </g> </svg>

<svg width="512" height="512" version="1.1" viewBox="0 0 384 384" xmlns="http://www.w3.org/2000/svg"><defs><clipPath id="l"><path d="m16 76h356v247h-356z"/></clipPath><clipPath id="h"><path d="m508.68 199.82c0 173.83-140.95 314.63-314.63 314.63s-314.63-140.8-314.63-314.63c0-173.84 140.95-314.63 314.63-314.63s314.63 140.8 314.63 314.63z"/></clipPath><clipPath id="g"><path d="m194 104h178v219h-178z"/></clipPath><clipPath id="f"><path d="m508.68 199.82c0 173.83-140.95 314.63-314.63 314.63s-314.63-140.8-314.63-314.63c0-173.84 140.95-314.63 314.63-314.63s314.63 140.8 314.63 314.63z"/></clipPath><clipPath id="e"><path d="m344 76h28v247h-28z"/></clipPath><clipPath id="d"><path d="m508.68 199.82c0 173.83-140.95 314.63-314.63 314.63s-314.63-140.8-314.63-314.63c0-173.84 140.95-314.63 314.63-314.63s314.63 140.8 314.63 314.63z"/></clipPath><clipPath id="c"><path d="m16 76h28v247h-28z"/></clipPath><clipPath id="b"><path d="m508.68 199.82c0 173.83-140.95 314.63-314.63 314.63s-314.63-140.8-314.63-314.63c0-173.84 140.95-314.63 314.63-314.63s314.63 140.8 314.63 314.63z"/></clipPath><clipPath id="a"><path d="m16 76h179v147h-179z"/></clipPath><clipPath id="k"><path d="m508.68 199.82c0 173.83-140.95 314.63-314.63 314.63s-314.63-140.8-314.63-314.63c0-173.84 140.95-314.63 314.63-314.63s314.63 140.8 314.63 314.63z"/></clipPath><clipPath id="j"><path d="m194 76h178v147h-178z"/></clipPath><clipPath id="i"><path d="m508.68 199.82c0 173.83-140.95 314.63-314.63 314.63s-314.63-140.8-314.63-314.63c0-173.84 140.95-314.63 314.63-314.63s314.63 140.8 314.63 314.63z"/></clipPath></defs><g transform="translate(-2.0471 -7.7865)"><g clip-path="url(#l)"><g clip-path="url(#h)"><path d="m29.676 76.703h328.72c7.4297 0 13.367 6.0312 13.367 13.461v219.28c0 7.4297-5.9922 13.367-13.367 13.367h-328.72c-7.4844 0-13.461-5.9922-13.461-13.367v-219.28c0-7.4297 5.9922-13.461 13.461-13.461" fill="#fff"/></g></g><g clip-path="url(#g)"><g clip-path="url(#f)"><path d="m371.88 104.06-177.83 118.36 150.47 100.52h13.68c7.4844 0 13.68-6.1953 13.68-13.68" fill="#ccc"/></g></g><g clip-path="url(#e)"><g clip-path="url(#d)"><path d="m344.52 76.703v246.23h13.68c7.4844 0 13.68-6.1953 13.68-13.68v-218.87c0-7.4297-6.1953-13.625-13.68-13.625" fill="#1e4688"/></g></g><g clip-path="url(#c)"><g clip-path="url(#b)"><path d="m29.895 76.703c-7.4297 0-13.625 6.1953-13.625 13.625v218.87c0 7.4844 6.1953 13.68 13.625 13.68h13.68v-246.23" fill="#2861bf"/></g></g><g clip-path="url(#a)"><g clip-path="url(#k)"><path d="m29.895 76.703c-7.4297 0-13.625 6.1953-13.625 13.625v13.68l177.78 118.41 177.83-118.36-27.359-27.305-150.47 100.34-150.42-100.46h-13.68" fill="#2861bf"/></g></g><g clip-path="url(#j)"><g clip-path="url(#i)"><path d="m358.2 76.703c7.4844 0 13.68 6.1953 13.68 13.625v13.68l-177.83 118.41-0.11133-45.244 150.53-100.54h13.68" fill="#2861bf"/></g></g><path transform="scale(.75)" d="m21.619 402.59v10c0 9.8333 7.9701 17.822 17.949 17.822h438.29c9.8333 0 17.822-7.916 17.822-17.822v-10c0 9.9062-7.989 17.822-17.822 17.822h-438.29c-9.9792 0-17.949-7.9889-17.949-17.822z" opacity=".3" stroke-width="1.3333"/><path transform="scale(.75)" d="m39.568 102.27c-9.9583 0-17.949 8.041-17.949 17.947v10c0-9.9062 7.9909-17.947 17.949-17.947h438.29c9.9062 0 17.822 8.041 17.822 17.947v-10c0-9.9062-7.916-17.947-17.822-17.947z" opacity=".1" stroke-width="1.3333"/></g></svg>
